packages/tokens/icons/report1/size16Px.svg

<svg viewBox="0 0 16 16" fill="none" xmlns="http://www.w3.org/2000/svg" width="1em" height="1em"><path d="M13.25 4.00034C13.5261 4.00035 13.75 3.7765 13.75 3.50036C13.75 3.22422 13.5262 3.00035 13.25 3.00034L13.25 4.00034ZM12.5 3.50031L12.4999 4.00031L12.5 3.50031ZM12.9142 2.91448L13.2678 2.56092L12.9142 2.91448ZM12.0858 2.08605L11.7322 2.4396L12.0858 2.08605ZM11.5 14.0003L4.5 14.0003V15.0003L11.5 15.0003V14.0003ZM3 12.5003L3 3.50026H2L2 12.5003H3ZM4.5 2.00026L10.6716 2.00026V1.00026L4.5 1.00026V2.00026ZM13 4.32869L13 12.5003H14L14 4.32869H13ZM11 1.49072V2.50031L12 2.50031V1.49072L11 1.49072ZM12.4999 4.00031L13.25 4.00034L13.25 3.00034L12.5 3.00031L12.4999 4.00031ZM11.7322 2.4396L12.5607 3.26803L13.2678 2.56092L12.4393 1.7325L11.7322 2.4396ZM11 2.50031C11 3.32871 11.6715 4.00027 12.4999 4.00031L12.5 3.00031C12.2238 3.00029 12 2.77644 12 2.50031L11 2.50031ZM14 4.32869C14 3.66565 13.7366 3.02977 13.2678 2.56092L12.5607 3.26803C12.842 3.54934 13 3.93087 13 4.32869H14ZM10.6716 2.00026C11.0694 2.00026 11.4509 2.1583 11.7322 2.4396L12.4393 1.7325C11.9705 1.26366 11.3346 1.00026 10.6716 1.00026V2.00026ZM4.5 14.0003C3.67157 14.0003 3 13.3287 3 12.5003H2C2 13.881 3.11929 15.0003 4.5 15.0003V14.0003ZM11.5 15.0003C12.8807 15.0003 14 13.881 14 12.5003H13C13 13.3287 12.3284 14.0003 11.5 14.0003V15.0003ZM3 3.50026C3 2.67184 3.67157 2.00026 4.5 2.00026V1.00026C3.11929 1.00026 2 2.11955 2 3.50026H3Z" fill="currentColor"/><path d="M5.5 8L5.5 11.5M8 5.5L8 11.5M10.5 4.5V11.5" stroke="currentColor" stroke-linecap="round"/></svg>

<svg xmlns="http://www.w3.org/2000/svg" fill="none" viewBox="0 0 16 16" width="1em" height="1em"><path fill="currentColor" d="M13.25 4a.5.5 0 0 0 0-1v1Zm-.75-.5V4v-.5Zm.414-.586.354-.353-.354.353Zm-.828-.828-.354.354.354-.354ZM11.5 14h-7v1h7v-1ZM3 12.5v-9H2v9h1ZM4.5 2h6.172V1H4.5v1ZM13 4.33v8.17h1V4.33h-1Zm-2-2.84V2.5h1V1.49h-1ZM12.5 4h.75V3h-.75v1Zm-.768-1.561.829.828.707-.707-.829-.829-.707.708ZM11 2.5A1.5 1.5 0 0 0 12.5 4V3a.5.5 0 0 1-.5-.5h-1Zm3 1.829a2.5 2.5 0 0 0-.732-1.768l-.707.707A1.5 1.5 0 0 1 13 4.328h1ZM10.672 2a1.5 1.5 0 0 1 1.06.44l.707-.708A2.5 2.5 0 0 0 10.672 1v1ZM4.5 14A1.5 1.5 0 0 1 3 12.5H2A2.5 2.5 0 0 0 4.5 15v-1Zm7 1a2.5 2.5 0 0 0 2.5-2.5h-1a1.5 1.5 0 0 1-1.5 1.5v1ZM3 3.5A1.5 1.5 0 0 1 4.5 2V1A2.5 2.5 0 0 0 2 3.5h1Z"/><path stroke="currentColor" stroke-linecap="round" d="M5.5 8v3.5m2.5-6v6m2.5-7v7"/></svg>
